X: 2283
M: C
L: 1/8
K: G
vdc |\
vB2vBuA vG2vGF | EAGE D2vDuC |\
vFG |\
vA>vd (3(udcd) vf>vd (3(udcd) |
ceba gecG | FAdf a2 vFuG |\
ceba geBc |[1 d2d2d2 :|[2 d^dfe dc=cA |]


